modules/feather/icons/linkedin.svg

<?xml version="1.0" encoding="UTF-8"?>
<svg width="24px" height="24px" viewBox="0 0 24 24" version="1.1" xmlns="http://www.w3.org/2000/svg" xmlns:xlink="http://www.w3.org/1999/xlink">
    <g id="linkedin" fill-rule="evenodd">
        <path d="M16,8 C19.8659932,8 23,11.1340068 23,15 L23,22 C23,22.5522847 22.5522847,23 22,23 L18,23 C17.4477153,23 17,22.5522847 17,22 L17,15 C17,14.4477153 16.5522847,14 16,14 C15.4477153,14 15,14.4477153 15,15 L15,22 C15,22.5522847 14.5522847,23 14,23 L10,23 C9.44771525,23 9,22.5522847 9,22 L9,15 C9,11.1340068 12.1340068,8 16,8 Z M21,21 L21,15 C21,12.2385763 18.7614237,10 16,10 C13.2385763,10 11,12.2385763 11,15 L11,21 L13,21 L13,15 C13,13.3431458 14.3431458,12 16,12 C17.6568542,12 19,13.3431458 19,15 L19,21 L21,21 Z M2,9 L6,9 C6.55228475,9 7,9.44771525 7,10 L7,22 C7,22.5522847 6.55228475,23 6,23 L2,23 C1.44771525,23 1,22.5522847 1,22 L1,10 C1,9.44771525 1.44771525,9 2,9 Z M3,11 L3,21 L5,21 L5,11 L3,11 Z M4,8 C2.34314575,8 1,6.65685425 1,5 C1,3.34314575 2.34314575,2 4,2 C5.65685425,2 7,3.34314575 7,5 C7,6.65685425 5.65685425,8 4,8 Z M4,6 C4.55228475,6 5,5.55228475 5,5 C5,4.44771525 4.55228475,4 4,4 C3.44771525,4 3,4.44771525 3,5 C3,5.55228475 3.44771525,6 4,6 Z" id="Combined-Shape" fill="#000000" fill-rule="nonzero"></path>
    </g>
</svg>

<svg width="24" height="24" viewBox="0 0 24 24" xmlns="http://www.w3.org/2000/svg"><path d="M16 8a7 7 0 0 1 7 7v7a1 1 0 0 1-1 1h-4a1 1 0 0 1-1-1v-7a1 1 0 0 0-2 0v7a1 1 0 0 1-1 1h-4a1 1 0 0 1-1-1v-7a7 7 0 0 1 7-7zm5 13v-6a5 5 0 0 0-10 0v6h2v-6a3 3 0 0 1 6 0v6h2zM2 9h4a1 1 0 0 1 1 1v12a1 1 0 0 1-1 1H2a1 1 0 0 1-1-1V10a1 1 0 0 1 1-1zm1 2v10h2V11H3zm1-3a3 3 0 1 1 0-6 3 3 0 0 1 0 6zm0-2a1 1 0 1 0 0-2 1 1 0 0 0 0 2z" fill-rule="nonzero"/></svg>
